X: 37
T: Apples In Winter
T: Fictional second name
T: Fictional third name
C: Trad.
R: Jig
M: 6/8
L: 1/8 
Z: Svante Kvarnstr\"om
K: Em
BEE BEE|Bdf edB|BAF FEF|DFA BAF|
BEE BEE|Bdf edB|BAB dAF|1FED EGA:|2FED EAc||
|:e2f gfe|eae edB|BAF FEF|DFA BAF|
e2f gfe|eae edB|BAB dAF|1FED EAc:|2FED E3|]
